X:7
T:Anyám, anyám, kedves édesanyám
M:4/4
L:1/4
K:D
ddBG | ABA<E | D2 D2 |
f<f e<d | e<f e<d | A2 A2 |
f<f e<d | e f e<d | A2 F2 |
d d B G | A B A<E | D2 D2 |

